X: 53
T: Missa Prolationum / Kyrie
N: Derived from Ock1011a-Missa_Prolationum-Kyrie.krn
C: Johannes Ockeghem
%%abc-version 2.0
%%abcx-abcm2ps-target-version 5.9.1 (29 Sep 2008)
%%abc-creator hum2abc beta
%%abcx-conversion-date 2019/02/17 07:26:15
%%abc-edited-by Will Watson
%%abc-edited-by Chris Gage 08-27-2012, Will Watson
%%abcx-initial-encoding-date 2014/05/13/
%%humdrum-veritas 3343366294
%%humdrum-veritas-data 389006729
%%linebreak <none>
%%barnumbers 0
L: 1/4
M: 3/1
Q: 1/2=120
%%staves [1 2 3 4]
V: 1 clef=treble
V: 2 clef=treble
V: 3 clef=treble-8
V: 4 clef=bass
K: F
[V:1] F8C4- | 
[V:2] F12 | 
[V:3] F12 | 
[V:4] F,12- | 
[V:1] C4F8 | 
[V:2] C12 | 
[V:3] A6F6 | 
[V:4] F,6A,6 | 
[V:1] A8z4 | 
[V:2] F12 | 
[V:3] c12 | 
[V:4] F,12 | 
[V:1] E4F8 | 
[V:2] A12 | 
[V:3] A6F6 | 
[V:4] C12- | 
[V:1] E4C4C4 | 
[V:2] z4E8 | 
[V:3] C8c4- | 
[V:4] C6A,6 | 
[V:1] z4F8 | 
[V:2] F12 | 
[V:3] c4A8 | 
[V:4] F,12 | 
[V:1] G6E2E4 | 
[V:2] E4C4C4 | 
[V:3] G8A4 | 
[V:4] C,8C4- | 
[V:1] F6A3=Bc2 | 
[V:2] z4F8 | 
[V:3] F4c8 | 
[V:4] C4A,8 | 
[V:1] =B2B4ABc4 | 
[V:2] G6E2E4 | 
[V:3] d8c4- | 
[V:4] G,8A,4 | 
[V:1] z4A4F4 | 
[V:2] F6A3=Bc2 | 
[V:3] c4F4A4 | 
[V:4] F,4C8 | 
[V:1] G4F4E4 | 
[V:2] =B2B4ABc4 | 
[V:3] G3FD4A4- | 
[V:4] D8C4- | 
[V:1] C8c4 | 
[V:2] z4A4F4 | 
[V:3] A2B2c4A4 | 
[V:4] C4F,4A,4 | 
[V:1] B2d4cBA4- | 
[V:2] G4F4E4 | 
[V:3] z2B4A2c4 | 
[V:4] G,3F,D,4A,4- | 
[V:1] A8F4 | 
[V:2] C8c4 | 
[V:3] F8F4 | 
[V:4] A,2B,2C4A,4 | 
[V:1] F6EDC4 | 
[V:2] B2d4cBA4- | 
[V:3] B,8F4 | 
[V:4] z2B,4A,2C4 | 
[V:1] z2F4G2A4 | 
[V:2] A8F4 | 
[V:3] F2A4B2c4 | 
[V:4] F,8F,4 | 
[V:1] B6G2A4 | 
[V:2] F6EDC4 | 
[V:3] d6B2c4 | 
[V:4] B,,8F,4 | 
[V:1] A12 ||  
[V:2] F12 ||  
[V:3] c12 ||  
[V:4] F,12 ||  
[V:1] [M:2/1]z8 | 
[V:2] [M:2/1]F8- | 
[V:3] [M:2/1]z8 | 
[V:4] [M:2/1]B,8- | 
[V:1] z8 | 
[V:2] F4D4 | 
[V:3] z8 | 
[V:4] B,8- | 
[V:1] z8 | 
[V:2] F4G4- | 
[V:3] z8 | 
[V:4] B,8- | 
[V:1] z8 | 
[V:2] G2FED4 | 
[V:3] z8 | 
[V:4] B,8 | 
[V:1] z8 | 
[V:2] C4F4 | 
[V:3] z8 | 
[V:4] A,8 | 
[V:1] z8 | 
[V:2] G4B4 | 
[V:3] z8 | 
[V:4] B,4G,4 | 
[V:1] z8 | 
[V:2] A4c4- | 
[V:3] z8 | 
[V:4] F,8 | 
[V:1] z8 | 
[V:2] c2BAG4 | 
[V:3] z8 | 
[V:4] E,8 | 
[V:1] z8 | 
[V:2] F4A4- | 
[V:3] z8 | 
[V:4] F,4D,4 | 
[V:1] z8 | 
[V:2] A2GFE4 | 
[V:3] z8 | 
[V:4] C,8 | 
[V:1] z8 | 
[V:2] D4F4- | 
[V:3] z8 | 
[V:4] B,,4z2F,2- | 
[V:1] z8 | 
[V:2] F2EDC4 | 
[V:3] z8 | 
[V:4] F,2G,2A,4 | 
[V:1] z8 | 
[V:2] z2F2G2A2- | 
[V:3] z8 | 
[V:4] B,6C2- | 
[V:1] z8 | 
[V:2] A2B4c2 | 
[V:3] z8 | 
[V:4] C2B,2G,2F,2 | 
[V:1] z8 | 
[V:2] BGG4^F2 | 
[V:3] z8 | 
[V:4] B,2C2A,4 | 
[V:1] z8 | 
[V:2] G8 | 
[V:3] z8 | 
[V:4] G,8 | 
[V:1] z8 | 
[V:2] z4G4- | 
[V:3] z8 | 
[V:4] C8 | 
[V:1] z8 | 
[V:2] G4A4 | 
[V:3] z8 | 
[V:4] C4C4 | 
[V:1] z8 | 
[V:2] B8 | 
[V:3] z8 | 
[V:4] B,4G,4 | 
[V:1] z8 | 
[V:2] A4F4 | 
[V:3] z8 | 
[V:4] A,4B,4- | 
[V:1] z8 | 
[V:2] G4A4- | 
[V:3] z8 | 
[V:4] B,4A,4 | 
[V:1] z8 | 
[V:2] A4G4 | 
[V:3] z8 | 
[V:4] F,4G,4 | 
[V:1] z8 | 
[V:2] E2F3EDC | 
[V:3] z8 | 
[V:4] A,8 | 
[V:1] z8 | 
[V:2] =B,3CD4 | 
[V:3] z8 | 
[V:4] G,4F,2G,2- | 
[V:1] z8 | 
[V:2] =B,2C4B,A, | 
[V:3] z8 | 
[V:4] G,F,E,D,C,2D,2 | 
[V:1] z8 | 
[V:2] G,2C4=B,2 | 
[V:3] z8 | 
[V:4] E,2F,2D,4 | 
[V:1] z8 | 
[V:2] C8 | 
[V:3] z8 | 
[V:4] C,8 | 
[V:1] G8- | 
[V:2] z8 | 
[V:3] c8- | 
[V:4] z8 | 
[V:1] G4E4 | 
[V:2] z8 | 
[V:3] c8- | 
[V:4] z8 | 
[V:1] G4A4- | 
[V:2] z8 | 
[V:3] c8- | 
[V:4] z8 | 
[V:1] A2GFE4 | 
[V:2] z8 | 
[V:3] c8 | 
[V:4] z8 | 
[V:1] D4G4 | 
[V:2] z8 | 
[V:3] B8 | 
[V:4] z8 | 
[V:1] A4c4 | 
[V:2] z8 | 
[V:3] c4A4 | 
[V:4] z8 | 
[V:1] =B4d4- | 
[V:2] z8 | 
[V:3] G8 | 
[V:4] z8 | 
[V:1] d2c=BA4 | 
[V:2] z8 | 
[V:3] F8 | 
[V:4] z8 | 
[V:1] G4=B4- | 
[V:2] z8 | 
[V:3] G4E4 | 
[V:4] z8 | 
[V:1] B2AGF4 | 
[V:2] z8 | 
[V:3] D8 | 
[V:4] z8 | 
[V:1] E4G4- | 
[V:2] z8 | 
[V:3] C4z2G2- | 
[V:4] z8 | 
[V:1] G2FED4 | 
[V:2] z8 | 
[V:3] G2A2B4 | 
[V:4] z8 | 
[V:1] z2G2A2=B2- | 
[V:2] z8 | 
[V:3] c6d2- | 
[V:4] z8 | 
[V:1] B2c4d2 | 
[V:2] z8 | 
[V:3] d2c2A2G2 | 
[V:4] z8 | 
[V:1] cAA4G2 | 
[V:2] z8 | 
[V:3] c2d2B4 | 
[V:4] z8 | 
[V:1] A8 | 
[V:2] z8 | 
[V:3] A8 | 
[V:4] z8 | 
[V:1] z4A4- | 
[V:2] z8 | 
[V:3] d8 | 
[V:4] z8 | 
[V:1] A4B4 | 
[V:2] z8 | 
[V:3] d4d4 | 
[V:4] z8 | 
[V:1] c8 | 
[V:2] z8 | 
[V:3] c4A4 | 
[V:4] z8 | 
[V:1] B4G4 | 
[V:2] z8 | 
[V:3] B4c4- | 
[V:4] z8 | 
[V:1] A4B4- | 
[V:2] z8 | 
[V:3] c4B4 | 
[V:4] z8 | 
[V:1] B4A4 | 
[V:2] z8 | 
[V:3] G4A4 | 
[V:4] z8 | 
[V:1] F2G3FED | 
[V:2] z8 | 
[V:3] B8 | 
[V:4] z8 | 
[V:1] C3DE4 | 
[V:2] z8 | 
[V:3] A4G2A2- | 
[V:4] z8 | 
[V:1] C2D4C=B, | 
[V:2] z8 | 
[V:3] AGFED2E2 | 
[V:4] z8 | 
[V:1] A,2D4^C2 | 
[V:2] z8 | 
[V:3] F2G2E4 | 
[V:4] z8 | 
[V:1] D8 | 
[V:2] z8 | 
[V:3] D8 | 
[V:4] z8 | 
[V:1] z8 | 
[V:2] C4F4 | 
[V:3] z8 | 
[V:4] A,8 | 
[V:1] z8 | 
[V:2] G4A4- | 
[V:3] z8 | 
[V:4] B,4A,4 | 
[V:1] z8 | 
[V:2] A2F4ED | 
[V:3] z8 | 
[V:4] D8 | 
[V:1] z8 | 
[V:2] E4G2F2 | 
[V:3] z8 | 
[V:4] C6A,2 | 
[V:1] z8 | 
[V:2] D4C4 | 
[V:3] z8 | 
[V:4] B,4A,4 | 
[V:1] z8 | 
[V:2] z2F2G2A2- | 
[V:3] z8 | 
[V:4] F,4B,2C2 | 
[V:1] z8 | 
[V:2] A2B2A3F | 
[V:3] z8 | 
[V:4] D4C2A,2 | 
[V:1] z8 | 
[V:2] G2A4G2 | 
[V:3] z8 | 
[V:4] B,2A,3F,G,2 | 
[V:1] z8 | 
[V:2] E2F2G4 | 
[V:3] z8 | 
[V:4] A,4G,2E,2 | 
[V:1] z8 | 
[V:2] C4=B,2C2 | 
[V:3] z8 | 
[V:4] F,2G,4z2 | 
[V:1] z8 | 
[V:2] E2D4C2- | 
[V:3] z8 | 
[V:4] C,4=B,,2C,2 | 
[V:1] z8 | 
[V:2] C2D4E2 | 
[V:3] z8 | 
[V:4] E,2D,2G,4 | 
[V:1] z8 | 
[V:2] F4G2A2- | 
[V:3] z8 | 
[V:4] F,2B,3A,/B,/A,2 | 
[V:1] z8 | 
[V:2] A2B2A3F | 
[V:3] z8 | 
[V:4] D3C/D/C2A,2 | 
[V:1] z8 | 
[V:2] G2E2D4 | 
[V:3] z8 | 
[V:4] B,2C4=B,2 | 
[V:1] z8 ||  
[V:2] C8 ||  
[V:3] z8 ||  
[V:4] C8 ||  
[V:1]  [K:C] [K:clef=treble][M:3/1]E8C4- | 
[V:2]  [K:C] [K:clef=treble-8][M:3/1]c12 | 
[V:3]  [K:C] [K:clef=treble-8][M:3/1]c12- | 
[V:4]  [K:C] [K:clef=bass][M:3/1]A,12- | 
[V:1] C4E8 | 
[V:2] A12 | 
[V:3] c12- | 
[V:4] A,12 | 
[V:1] A8z4 | 
[V:2] c12 | 
[V:3] c12 | 
[V:4] F,8A,4- | 
[V:1] z4A8 | 
[V:2] f12 | 
[V:3] A12 | 
[V:4] A,4D,8 | 
[V:1] E4F4G4 | 
[V:2] z12 | 
[V:3] c12 | 
[V:4] C,4F,3E,C,4 | 
[V:1] A4c3BA4 | 
[V:2] f12 | 
[V:3] F12 | 
[V:4] z4F,4A,2B,2 | 
[V:1] G4z4G4 | 
[V:2] c4d4e4 | 
[V:3] E4A3GE4 | 
[V:4] C4F,4G,4 | 
[V:1] A3Bc2c4A2 | 
[V:2] f4a3gf4 | 
[V:3] z4A4c2d2 | 
[V:4] F,12 | 
[V:1] G2c3BA4^G2 | 
[V:2] e4z4e4 | 
[V:3] e4A4B4 | 
[V:4] z4F,4E,4 | 
[V:1] A4z4A3B | 
[V:2] f3ga2a4f2 | 
[V:3] A12 | 
[V:4] z2A,4F,4G,2 | 
[V:1] c8B4 | 
[V:2] e2a3gf4e2 | 
[V:3] z4A4G4 | 
[V:4] A,3B,C2F,2G,4 | 
[V:1] z2A3GE2F4 | 
[V:2] f4z4f3g | 
[V:3] z2c4A4B2 | 
[V:4] F,6C,2D,4 | 
[V:1] E4z4B4 | 
[V:2] a8g4 | 
[V:3] c3de2A2B4 | 
[V:4] A,,2A,3G,F,2E,4 | 
[V:1] c6B2A3F | 
[V:2] z2f3ec2d4 | 
[V:3] A6E2F4 | 
[V:4] z2A,4G,2A,2D,2 | 
[V:1] G2A2z2F3DE2 | 
[V:2] c4z4g4 | 
[V:3] C2c3BA2G4 | 
[V:4] G,2F,2D,2F,2z2E,2 | 
[V:1] A,2E2F2D2C2F2 | 
[V:2] a6g2f3d | 
[V:3] z2c4B2c2F2 | 
[V:4] F,2C,2F,2G,2A,2D,2 | 
[V:1] G2A4GFE4 | 
[V:2] e2f2z2d3Bc2 | 
[V:3] _B2A2F2A2z2G2 | 
[V:4] G,2F,2D,4E,4 | 
[V:1] F2E2F2D2C2F2 | 
[V:2] F2c2d2B2A2d2 | 
[V:3] A2E2A2B2c2F2 | 
[V:4] D,2C,2F,2G,2A,4 | 
[V:1] G2A4F4E2 | 
[V:2] e2f4edc4- | 
[V:3] _B2A2F4G4 | 
[V:4] G,2F,3D,F,2C,4 | 
[V:1] F12 |]  
[V:2] c12 |]  
[V:3] F12 |]  
[V:4] F,12 |]  



